X: 03023
T: DE DANANN
C: Bob McQuillen Spring'78
B: Bob's Note Book 03 #23
%R: reel
%D:1978
Z: 2020 John Chambers <jc:trillian.mit.edu>
M: C
L: 1/8
K: Am
cA \
| EAAA EAAB | cBcd eAAe | efge cedc | dBG2 G2cA |
| EAAA EAAB | cBcd eAAe | efga gede | cAAG A2  :|
|: cd \
| efga gede | cAAG A2cd | egag ecde | dcBA G2cB |
| ABce d2cd | ega2 a2gf | edef edcB | c2A2 A2  :|
%%begintext align
%% What a wonderful group from
%% Ireland is De Danann, with
%% their beautiful music. This
%% tune is for them, with appreciation.
%%endtext

%%sep 1 1 500

%%sep 1 1 500

